X: 1
P: Tail Toddle
C: Arr. T. Traub 11-24-2002
R: Reel
K: D
M: 4/4
L: 1/8
|:A2|"D"d2 fd "G"g2 fe|"D"d2 fd "A"e2 cA|"D"d2 fd "G"g2 fe|"Em"fgaf "A"e2 cA :|
|:"G"g2 dB B2 dB|"G"f2 dB "A"e2 cA|"G"g2 dB B2 dB|"A"AAaf e2 cA :|
